X:1
T:Chrono Trigger Trigger Please OC ReMix
T:Chrono Trigger, Trigger Please OC ReMix
T:Shnabubula, after themes from Chrono Trigger Excerpt arr. and simplified by Stefan Werning 
%%score { ( 1 3 ) | 2 }
L:1/8
Q:1/4=167
M:4/4
K:G
V:1 treble nm="Piano"
V:3 treble 
V:2 bass 
V:1
 [FB] [FB]2 [FB] [Ad] [FB]2 [FB] | [DAd][B,FB][EBe][=Fc=f] [EBe][DAd][B,^FB][A,EA] | %2
 [^Gdg] z2 [=G^cf] z2 [F=c=f]2 | z2 [^DAd]/ z z/ [=D^G^c]/ z z/ [^C=G=c]/ z z/ | %4
 [CFB][^Gd][FB][Gd] [FB][Gd][FB][Gd] | [B,=F^A][G^c][FA][Gc] [FA][Gc][FA][Gc] | %6
 [B,E] [B,E]2 [B,E] [DG] [B,E]2 [B,E] | [DG][B,E][EA][G_B] [EA][DG][B,E][G,D] | %8
 EF/A/ B/^c/^d/e/ f/g/a/g/ f/e/d/f/ | ^c/e/^d/c/ B/A/G/B/ A/G/F/E/ F/E/^D/^C/ | %10
 E/^D/B,/C/ D/E/B,/D/ F/D/B,/C/ D/E/B,/F/ | G/E/F/G/ A/B/c/d/ e/f/g/a/ b/c'/d'/^d'/ | %12
 e'/d'/c'/b/ a/g/b/f/ a/g/f/e/ ^d/e/f/d/ | e/^d/c/B/ A/G/B/G/ A/F/G/E/ G/F/E/F/ | %14
 ^D/E/F/B/ ^d/e/f/b/ ^d'/e'/f'/b'/ a'/f'/e'/d'/ | %15
 g'/f'/e'/b/ g'/f'/e'/b/ [ff']/b/[ff']/b/ [ff']/b/[af']/b/ | %16
 d'/^c'/b/f/ d'/c'/b/f/ d/^c/A/F/ d'/c'/b/f/ | d'/^c'/b/f/ d/^c/A/F/ d'/c'/b/f/ d/c/f/b/ | %18
 ^c'/b/f/e/ ^c/B/^A/F/ c'/b/^a/f/ e/c/A/F/ | ^c'/b/f/e/ ^c/B/^A/f/ c'/b/f/e/ c/B/A/f/ | %20
 ^c'/a/b/^g/ a/f/g/e/ f/d/e/^c/ d/B/c/A/ | B/^G/A/F/ G/E/F/D/ E/^C/D/B,/ C/A,/B,/^G,/ | %22
 A,/F,/^G,/A,/ B,/^C/D/C/ B,/C/D/E/ F/D/E/F/ | ^G/A/F/G/ A/B/^c/d/ e/f/^g/a/ b/^c'/b | %24
 d'2 ^c' b2 c' [bd']2- | [bd']DGB [bd']2 [be']2 | [d'f']2 [^c'e'][fd']- [fd']e' [d'f']2- | %27
 [d'f']B,/D/ FF>BF [DB]>B, | [b^g'] z [d'=f'][bd'] ^gb^c'd'- | d' d'2 b e'2 d'2 | %30
 [e^a^c']^g/=g/ f/=f/e/^d/ =d/^c/=c/B/ ^A/=A/^G/=G/ | .F(F^A^c) !fermata!f4 :| %32
V:2
 B,, B,,2 B,, D, B,,2 B,, | D,B,,E,=F, E,D,B,,A,, | E,E,/B,,/ E,,^D, D,/^A,,/^D,, =D,2 | %3
 B,,,2 B,,/F,,/B,,,/ z/ ^A,,/E,,/^A,,,/ z/ =A,,/^D,,/=A,,,/ z/ | [^G,,,^G,,]3/2 z4 z2 z/ | %5
 [G,,,G,,]3/2 z4 z2 z/ | E,, E,2 E,, G,, E,,2 E, | G,,E,A,,_B,, A,,G,,E,,D,, | %8
 E,,E,B,,G,, E,,E,B,,G,, | E,,E,B,,G,, E,,E,B,,G,, | B,,,B,,F,,D,, B,,,B,,F,,D,, | %11
 C,CG,E, D,DA,F, | E,,E,B,,G,, E,,E,B,,G,, | E,,E,B,,G,, E,,E,B,,G,, | %14
 B,,,B,,F,,D,, B,,,B,,F,,D,, | C,CG,E, D,DA,F, | B,,,A,,F,,D,, B,,,A,,F,,D,, | %17
 B,,,A,,F,,D,, B,,,A,,F,,D,, | F,,E,^C,^A,, F,,E,C,A,, | F,,E,^C,^A,, F,,E,C,A,, | %20
 A,,,2 A,,A,,, A,,,A,,,A,,A,,, | A,,,2 A,,A,,, A,,,A,,,E,,B,, | E,,2 E,E,, E,,E,,E,E,, | %23
 [E,,B,,]2 E,[E,,B,,]- [E,,B,,]E,,^G,,D, | G,,G,,G,G,, G,,G,,G,G,, | G,,G,,G,G,, G,,G,,A,F, | %26
 B,,,B,,,B,,B,,, B,,,B,,,B,,B,,, | B,,,B,,,B,,B,,, B,,,B,,,B,,F,, | =F,,F,,=F,F,, F,,F,,F,F,, | %29
 =F,,F,,=F,F,, F,,F,,F,^C, | [F,,,F,,] z4 z2 z | [F,,^C,] z4 z2 z :| %32
V:3
 x8 | x8 | x8 | x8 | x8 | x8 | x8 | x8 | x8 | x8 | x8 | x8 | x8 | x8 | x8 | x8 | x8 | x8 | x8 | %19
 x8 | x8 | x8 | x8 | x8 | gfeB d2 d2- | dB,DD dged | f2 ed- de f2 | x8 | ^g z g=f d2 gg | %29
 b^gdB gbgb | x8 | x8 :| %32

